X:2493
T:Cancioneiro de Casto Sampedro: N\'umero 439
T:Pasacorredoiras dos de Pontevedra
O:Galicia (Spain)
B:Cancioneiro de Casto Sampedro
N:http://www.multimania.com/galicia/terraes.htm
Z:formatado por Xurxo-Adrian Ente
Z:Covertido de Midi a abc por Antonio-Nil
M: 4/4
L: 1/8
Q:1/4=240
K:C % 0 sharps
z6 G3/2z/2|E3/2z/2 EC EC EF|G3/2z/2 GE GE GE|F3/2z/2 FD FD FA|
GF ED C3/2z/2 G3/2z/2|E3/2z/2 EC EC EF|G3/2z/2 GE GE GE|F3/2z/2 FD FD B,D|
C4- Cz G3/2z/2|E3/2z/2 EC EC EF|G3/2z/2 GE GE GE|F3/2z/2 FD FD FA|
GF ED C3/2z/2 G3/2z/2|E3/2z/2 EC EC EF|G3/2z/2 GE GE GE|F3/2z/2 FD FD B,D|
C6- C/2z3/2|A2- A/2z/2F2<A2F-|[G/2-F/2]G2z/2E CD EF|G3/2z/2 AB cB AB|
G3z EC EG|cB AG AG FE|GF EF D3/2z/2 EF|G3/2z/2 EC DF DB,|
C4- Cz EG|A2- A/2z/2F2<A2F-|[G/2-F/2]G2z/2E CD EF|G3/2z/2 AB cB AB|
G3z EC EG|cB AG AG FE|GF EF D3/2z/2 EF|G3/2z/2 EC DF DB,|
C3z3 G3/2z/2|E3/2z/2 EC EC EF|G3/2z/2 GE GE GE|F3/2z/2 FD FD FA|
GF ED C3/2z/2 G3/2z/2|E3/2z/2 EC EC EF|G3/2z/2 GE GE GE|F3/2z/2 FD FD B,D|
C4- Cz G3/2z/2|E3/2z/2 EC EC EF|G3/2z/2 GE GE GE|F3/2z/2 FD FD FA|
GF ED C3/2z/2 G3/2z/2|E3/2z/2 EC EC EF|G3/2z/2 GE GE GE|F3/2z/2 FD FD B,D|
C6- C/2z3/2|A2- A/2z/2F2<A2F-|[G/2-F/2]G2z/2E CD EF|G3/2z/2 AB cB AB|
G3z EC EG|cB AG AG FE|GF EF D3/2z/2 EF|G3/2z/2 EC DF DB,|
C4- Cz EG|A2- A/2z/2F2<A2F-|[G/2-F/2]G2z/2E CD EF|G3/2z/2 AB cB AB|
G3z EC EG|cB AG AG FE|GF EF D3/2z/2 EF|G3/2z/2 EC DF DB,|
C3


